X:1
T:Title
%%score 1 { ( 2 4 ) | ( 3 5 6 ) }
L:1/8
M:3/4
K:F
V:1 treble nm="Akkordion"
V:2 treble nm="Grand Piano"
V:4 treble 
V:3 bass 
V:5 bass 
V:6 bass 
V:1
 z2 z2[Q:1/4=100] C2 | A A3 A2 | A A3 A2 | c4 c2 | A4 A2 | B B3 B2 | G4 G2 | A2 G2 =B2 | c4 c2 | %9
 B2 z2 BB | A A3 A2 | A3 A A2 | F2 z2 A2 | G2 z2 GG | G2 z2 G2 | G2 A2 G2 |[M:7/8] c-c-c- c- c3 | %17
[M:6/4] z12 | z12 | z12 | z12 |[M:5/4] z10 |[M:3/4] C2 A A3 | A2 A A3 | A2 c4 | c2 A4 | A2 B B3 | %27
 B2 G4 | G2 A2 G2 | =B2 c4 | c2 B2 z2 | BB A A3 | A2 A3 A | A2 F2 z2 | A2 G2 z2 | GG G2 z2 | %36
 G2 G2 A2 |[M:7/8] G2 c- c- c3- |[M:6/4] c6 z6 | z12 | z12 | z12 |[M:5/4] z10 |[M:1/4] z2 | %44
[M:3/4] A2 A A3 | A2 d4 | cc c2 B2 | B2 B4 | B2 G2 z2 | GG c c3 | B2 B2 A2 | A2 A4 | A2 D4 | %53
 DE F4 | ED G G3 | B2 A4 | A2 A3 G | E2 G F3 | D2 F2 F2 |[M:7/4] G2 A6 z2 z4 |[M:6/4] z12 | z12 | %62
 z12 | z12 | z12 |[M:9/4] z18 |[M:1/4] z2 |[M:3/4] z6 | z6 | z6 |[M:2/4] z4 |[M:1/4] z2 | z2 | %73
[M:6/4] z12 | z12 |[M:5/4] z10 |] %76
V:2
 z2 z2 C2 | A,2 C2 F2 | A2 F2 C2 | c4 z2 | [Fc]2 z2 [FA]2 | [DB] B3 [DB]2 | z G3 z2 | A2 G2 =B2 | %8
 [Ec]4 .c2 | [CGB]2 z2 [CEB]2 | [CA]2 z2 [CA]2 | [^CA]2 z2 [EA]2 | [F,DF]2 G,2 A2 | G2 C2 G2 | %14
 G2 E2 G2 | G2 A2 G2 |[M:7/8] c-c-c- c- c3 |[M:6/4] A4 A2 A4 F2 | [EG]4 [EG]2 .[EG]6 | %19
 [CFA]4 [CFA]2 [CAc]4 [DGB]2 | [CFA]6 [B,EG]6 |[M:5/4] [A,F]2- [A,F]2- [A,F]6 |[M:3/4] C2 A,2 C2 | %23
 F2 A2 F2 | z2 c4 | [Gc]2 [Fc]2 z2 | [FA]2 [DB] B3 | z2 z G3 | G2 A2 G2 | =B2 [Ec]4 | %30
 .c2 [CGB]2 z2 | [CEB]2 [CA]2 z2 | [CA]2 [^CA]2 z2 | [EA]2 [F,DF]2 G,2 | A2 G2 C2 | G2 G2 E2 | %36
 G2 G2 A2 |[M:7/8] z2 c- c- c3- |[M:6/4] c6 z6 | F2 [EG]4 [EG]2 [EG]4 | z2 [CFA]4 [CFA]2 [CAc]4 | %41
 [DGB]2 [CFA]4- [CFA]2 [B,EG]4- |[M:5/4] [B,EG]2 [A,F]2- [A,F]6- |[M:1/4] [A,F]2 | %44
[M:3/4] z2 [^FA] A3 | [^FA]2 [DAd]4 | [DAc][Ac] [DAc]2 [DGB]2 | z2 [GB]4 | B2 [EG]2 z2 | %49
 [EG][EG] [Gc] [Gc]3 | [GB]2 B2 A2 | A2 [CA]4 | [CA]2[K:bass] [F,D]4 | D[K:treble]E F4 | ED G G3 | %55
 B2 A4 | A2 [^CA]3 [CG] | [^CE]2 G F3 | D2 F2 F2 |[M:7/4] [DG]2 [^CA]6 z2 z4 |[M:6/4] z2 c4 c2 c4 | %61
 c2 [Fd]4- [Fd]2 [Fd]4- | [Fd]2 c4- c6 | z2 c4 c2 c4 | c2 [Fd]4- [Fd]2 [Fd]4- | %65
[M:9/4] [Fd]2 c4- c6 z6 |[M:1/4] z2 |[M:3/4] c2 A4 | AB c4 | [CF][CE] [B,D]3 [DF] | %70
[M:2/4] [DB]2 [CA]2- |[M:1/4] [CA]2 | C2 |[M:6/4] [CFA]4 [CFA]2 [CAc]4 [DGB]2 | [CFA]6 [B,EG]6 | %75
[M:5/4] [A,F]2- [A,F]2- [A,F]6 |] %76
V:3
 z6 | [F,,F,]4 C,2 | [F,A,]4 [F,A,]2 | G,2 z2 [C,B,]2 | z2 C2 F,2 | z D3 z2 | %6
 z E3[K:treble] [CE]2 | [F,CF]2 [G,=B,F]2 [G,F]2 | z2 z2[K:treble] E2 | E,2 C,2 G,2 | %10
 F,2 F,,2 F,2 | E,2 A,,2 ^C,2 | D,2 E,2[K:treble] [F,A,F]2 | [G,=B,F]2 A,2 [B,DF]2 | %14
 [DF]2 C2 [=B,DF]2 | [G,=B,F]2 [G,CF]2 [G,B,F]2 |[M:7/8][K:bass] G,2 z z z z2 | %17
[M:6/4] [F,CF]4 [F,CF]2 [F,CF]4 [F,A,]2 | [C,C]4 [C,C]2 .[C,C]6 | F,4 F,2 F,4 B,,2 | C,6 C,6 | %21
[M:5/4] F,2- F,2- F,6 |[M:3/4] z2 [F,,F,]4 | C,2 [F,A,]4 | z2 G,2 z2 | [C,B,]2 z2 C2 | z2 z D3 | %27
 G,2 z E3 | [CE]2 [F,CF]2 [G,=B,F]2 | [G,F]2[K:bass] [C,G,]4 | E2[K:treble][K:bass] z2 z2 | %31
 G,2 F,2 F,,2 | F,2 E,2 A,,2 | ^C,2 D,2 E,2 | [F,A,F]2 [G,=B,F]2 A,2 | [=B,DF]2 [DF]2 C2 | %36
 [=B,DF]2 [G,B,F]2 [G,CF]2 |[M:7/8] [G,=B,F]2[K:bass] C,2- [C,-A,]2 [C,_B,]- | %38
[M:6/4] [C,B,]2 [F,CF]4 [F,CF]2 [F,CF]4 | [F,A,]2 [C,C]4 [C,C]2 [C,C]4 | z2 F,4 F,2 F,4 | %41
 B,,2 C,4- C,2 C,4- |[M:5/4] C,2 F,2- F,6- |[M:1/4] F,2 |[M:3/4][K:treble] A2 z ^F3 | D,2 ^F,4 | %46
 z D G,2 G,2 | G,2 G,2 A,2 | [B,DG]2 [C,C]2 z2 | [C,C]2 [E,C] [E,C]3 | [E,C]2 [F,D]2 [F,C]2 | %51
 [F,C]2 [F,,F,]C, =B,,C, | D,C, D,4 | F,G, [D,A,D]4 | G,F, [B,D] [B,D]3 | [G,D]2 [F,D]4 | %56
 [F,D]2 [A,,E,]4 | [A,,A,]2 [D,F,D] [D,A,D]3 | [D,F,]2 [D,A,D]2 [D,A,D]2 | %59
[M:7/4] [B,,E,]2 [A,,E,]6 z2 z4 |[M:6/4] z2 [F,A,F]4 [F,A,F]2 [F,A,F]4 | %61
 [F,A,F]2 [B,,B,]4- [B,,B,]2 [B,,B,]4- | [B,,B,]2 [F,A,F]4- [F,A,F]6 | %63
 z2 [F,A,F]4 [F,A,F]2 [F,A,F]4 | [F,A,F]2 [B,,B,]4- [B,,B,]2 [B,,B,]4- | %65
[M:9/4] [B,,B,]2 [F,A,F]4- [F,A,F]6 z6 |[M:1/4] z2 |[M:3/4] C2 A,4 | A,B, C4 | [A,,F,]2 [B,,F,]4 | %70
[M:2/4] [B,,F,]2 [F,,F,]2- |[M:1/4] [F,,F,]2 | C,2 |[M:6/4] F,4 F,2 F,4 B,,2 | C,6 C,6 | %75
[M:5/4] F,2- F,2- F,6 |] %76
V:4
 x6 | x6 | x6 | E2 [A,F]2 [Gc]2 | x6 | x6 | .[EG]2 G,2 G2 | x6 | x6 | x6 | x6 | x6 | x6 | x6 | x6 | %15
 x6 |[M:7/8] E2 F2 G3 |[M:6/4] x12 | x12 | x12 | x12 |[M:5/4] x10 |[M:3/4] x6 | x6 | C2 E2 [A,F]2 | %25
 x6 | x6 | [DB]2 .[EG]2 G,2 | x6 | x6 | x6 | x6 | x6 | x6 | x6 | x6 | x6 |[M:7/8] G2 E2 F2 G- | %38
[M:6/4] G2 A4 A2 A4 | x12 | x12 | x12 |[M:5/4] x10 |[M:1/4] x2 |[M:3/4] x6 | x6 | x6 | %47
 [DGB]2 D2 C2 | x6 | x6 | x6 | x6 | x2[K:bass] x4 | x[K:treble] x5 | x6 | x6 | x6 | x6 | x6 | %59
[M:7/4] x14 |[M:6/4] x12 | x12 | x12 | x12 | x12 |[M:9/4] x18 |[M:1/4] x2 |[M:3/4] x6 | x6 | x6 | %70
[M:2/4] x4 |[M:1/4] x2 | x2 |[M:6/4] x12 | x12 |[M:5/4] x10 |] %76
V:5
 x6 | x6 | x6 | C,4 z2 | [F,A,]4 z2 | z2 D,2 G,2 | C,2 z2[K:treble] z2 | x6 | %8
 [C,G,]4[K:treble] z c | x6 | x6 | x6 | x4[K:treble] x2 | x6 | x6 | x6 | %16
[M:7/8][K:bass] C,2- [C,-A,]2 [C,B,]3 |[M:6/4] x12 | x12 | x12 | x12 |[M:5/4] x10 |[M:3/4] x6 | %23
 x6 | [F,A,]2 C,4 | z2 [F,A,]4 | F,2 z2 D,2 | z2 C,2 z2 | x6 | x2[K:bass] x4 | %30
 z[K:treble] c[K:bass] E,2 C,2 | x6 | x6 | x6 | x6 | x6 | x6 |[M:7/8] z2[K:bass] G,2 z z2 | %38
[M:6/4] x12 | x12 | x12 | x12 |[M:5/4] x10 |[M:1/4] x2 |[M:3/4][K:treble] z2 D,4 | x6 | %46
 ^F,2 z2 z2 | x6 | x6 | x6 | x6 | x6 | x6 | x6 | x6 | x6 | x6 | x6 | x6 |[M:7/4] x14 |[M:6/4] x12 | %61
 x12 | x12 | x12 | x12 |[M:9/4] x18 |[M:1/4] x2 |[M:3/4] x6 | x6 | x6 |[M:2/4] x4 |[M:1/4] x2 | %72
 x2 |[M:6/4] x12 | x12 |[M:5/4] x10 |] %76
V:6
 x6 | x6 | x6 | x6 | x6 | G,,2 z2 z2 | x4[K:treble] x2 | x6 | x4[K:treble] x2 | x6 | x6 | x6 | %12
 x4[K:treble] x2 | x6 | x6 | x6 |[M:7/8][K:bass] x7 |[M:6/4] x12 | x12 | x12 | x12 |[M:5/4] x10 | %22
[M:3/4] x6 | x6 | x6 | x6 | z2 G,,2 z2 | x6 | x6 | x2[K:bass] x4 | x[K:treble] x[K:bass] x4 | x6 | %32
 x6 | x6 | x6 | x6 | x6 |[M:7/8] x2[K:bass] x5 |[M:6/4] x12 | x12 | x12 | x12 |[M:5/4] x10 | %43
[M:1/4] x2 |[M:3/4][K:treble] x6 | x6 | x6 | x6 | x6 | x6 | x6 | x6 | x6 | x6 | x6 | x6 | x6 | x6 | %58
 x6 |[M:7/4] x14 |[M:6/4] x12 | x12 | x12 | x12 | x12 |[M:9/4] x18 |[M:1/4] x2 |[M:3/4] x6 | x6 | %69
 x6 |[M:2/4] x4 |[M:1/4] x2 | x2 |[M:6/4] x12 | x12 |[M:5/4] x10 |] %76

